svgs/where_is_my_train.svg

<svg width="25" height="25" viewBox="0 0 25 25" fill="none" xmlns="http://www.w3.org/2000/svg">
<path d="M16.1146 19.0938H14.1875L14.6979 19.6042H9.92708L10.4375 19.0938H8.52083L4.8125 22.8021L6.67708 22.8542L7.33333 22.1979H17.2917L17.9479 22.8542L19.8125 22.8021L16.1146 19.0938ZM8.29167 21.2396L8.96875 20.5625H15.6563L16.3333 21.2396H8.29167Z" fill="black"/>
<path d="M8.98958 17.8542H15.6354C17.6979 17.8542 19.375 16.1771 19.375 14.1146V6.64583C19.375 4.58333 17.6979 2.90625 15.6354 2.90625H14.6667C14.6667 2.90625 14.7604 2.25 12.1979 2.25C10.0104 2.25 9.95833 2.90625 9.95833 2.90625H8.98958C6.92708 2.90625 5.25 4.58333 5.25 6.64583V14.1146C5.25 16.1771 6.92708 17.8542 8.98958 17.8542ZM9.23958 15.4062C8.57292 15.4062 8.04167 14.875 8.04167 14.2083C8.04167 13.5417 8.57292 13.0104 9.23958 13.0104C9.90625 13.0104 10.4375 13.5417 10.4375 14.2083C10.4375 14.875 9.90625 15.4062 9.23958 15.4062ZM15.4375 15.4062H15.3854C14.7188 15.4062 14.1875 14.875 14.1875 14.2083C14.1875 13.5417 14.7188 13.0104 15.3854 13.0104C16.0521 13.0104 16.5833 13.5417 16.5833 14.2083C16.5833 14.8542 16.0833 15.375 15.4375 15.4062ZM11.6042 3.27083H13.0208C13.2292 3.26042 13.3958 3.42708 13.4062 3.63542C13.4062 3.64583 13.4062 3.64583 13.4062 3.65625C13.4167 3.86458 13.2396 4.04167 13.0312 4.05208H13.0208H11.6042C11.4062 4.02083 11.2604 3.85417 11.2708 3.65625C11.2708 3.45833 11.4167 3.29167 11.6042 3.27083ZM7.10417 6.94792C7.10417 6.66667 7.33333 6.4375 7.61458 6.4375H16.9896C17.2708 6.4375 17.5 6.66667 17.5 6.94792V9.72917C17.5 10.0104 17.2708 10.2396 16.9896 10.2396V10.1979H7.61458C7.34375 10.1979 7.125 9.98958 7.10417 9.72917V6.94792Z" fill="black"/>
</svg>

<svg xmlns="http://www.w3.org/2000/svg" width="25" height="25" fill="none" viewBox="0 0 25 25"><path fill="#000" d="M16.115 19.094h-1.927l.51.51h-4.77l.51-.51H8.52l-3.709 3.708 1.865.052.656-.656h9.959l.656.656 1.864-.052-3.697-3.708M8.292 21.24l.677-.677h6.687l.677.677zm.698-3.386h6.645a3.743 3.743 0 0 0 3.74-3.74V6.647a3.743 3.743 0 0 0-3.74-3.74h-.968s.093-.656-2.47-.656c-2.187 0-2.239.656-2.239.656H8.99a3.743 3.743 0 0 0-3.74 3.74v7.469a3.743 3.743 0 0 0 3.74 3.74m.25-2.448a1.191 1.191 0 0 1-1.198-1.198c0-.666.53-1.198 1.198-1.198.666 0 1.197.532 1.197 1.198a1.19 1.19 0 0 1-1.197 1.198m6.198 0h-.053a1.191 1.191 0 0 1-1.197-1.198c0-.666.53-1.198 1.197-1.198s1.198.532 1.198 1.198c0 .646-.5 1.167-1.145 1.198M11.604 3.271h1.417a.373.373 0 0 1 .385.364v.021a.39.39 0 0 1-.375.396h-1.427a.385.385 0 0 1-.333-.396c0-.198.146-.364.333-.385m-4.5 3.677c0-.281.23-.51.51-.51h9.376c.28 0 .51.229.51.51v2.781c0 .281-.23.51-.51.51v-.041H7.615a.511.511 0 0 1-.51-.469V6.948"/></svg>
